X:1
%%titlespace -1cm
T: Timmy Clifford's $1(J-66)
Z: Transcribed to abc by Mary Lou Knack
R: jig
M: 6/8
K: G
"G"G,B,D "C"E2D| EGF "D"GDB,| "G"G,B,D "C"C2B| "D"AGF "G"G3|
"G"G,B,D "C"E2D| EGF "D"GAB|  "G"d3 B3|1 "D"AGF "G"G3 :|2 "D"AGF "G"GBd :|
|: "C"efe "G"d2B| BAG GBd| "C"efe "G"d2B| BAG "D"A2g/f/|
"C"efe "G"d2B| BAG GAB| "C"c3 "G"B3|1 "D"AGF "G"GBd :|2 "D"AGF "G"GDB,|]

